X:1109
T:Well-Hall
%%MIDI gchord fHIghi
%%MIDI beat 100 95 80
C:Henry Playford, 1701
S:Colin Hume's website,  colinhume.com  - chords can also be printed below the stave.
Q:1/2=110
M:3/2
R:Triple-time
L:1/4
K:F
P:A
V:1 name=Tune
%%MIDI program 68       % Oboe
%%MIDI chordprog 45     % Pizzicato Strings
%%MIDI bassprog 32      % Acoustic Bass
%%MIDI control 10 0     % Left speaker
|: "F"Ac dc fA | "C/E"G2 E2 B2 | "F/D"Ac dc fg | "C7"a4 g2 |
"F"ag fc df | "Dm"d2 F2 A2 | "Gm"GA Bc A2 | "C"B3 c B2 :|
V:2 name=Counter
%%MIDI program 71       % Clarinet
%%MIDI control 10 127    Right speaker
|: F2 A2 C2 | G,C EC DE | F2 A2 C2 | EF GF EG |
FG A2 F2 | FE DE FD | B,A, G,2D2 | C2 E2 G2 :|
P:B
V:1
|: "Bb"BF GF GB | "Gm"D3 B D2 | "Am"EG AG Ac | "C7"E3 c B2 |
"F"Ac dc fc | "Bb"d3 e/f/ gd | "C7"ec Aa fa | "F"f3 g f2 :|
V:2
|: D2 B,2 D2 | G,2 A,2 B,2 | C2 A,2 C2 | G,2 C2 E2 |
F2 A2 C2 | B,2 A,2 G,2 | C2 E2 DE | F2 A2 c2 :|

